X:161
%%titlespace -12
%%musicspace -15
T:The Gypsies
M:4/4
L:1/8
K:Em
e>f | "Em"g>fe>d e>dB>d | "C"e>d (3efg "G"B2 B>A | "G"G>FG>A B>AB>d | "Am"e2A2 "Bm"A2 e>f | 
"Em"g>fe>d e>dB>d | "C"e>d (3efg "G"B2 B>A | "G"G>FG>A "Am"B>c"Bm"B>A | "Em"G2 E2 E2 ::
e>f | "Em"g>fe>d e>Be>f | g>fe>d e2e>d | "Em"e>de>f "C"g>fg>a | "D"b2d2d2g>a | 
"G"(3bag "D"a>f g2"Em"g>f | "C"e>d (3efg "G"B2 B>A | "G"G>FG>A "Am"B>c"Bm"B>A | "Em"G2 E2 E2 :|

%%newpage
%%scale 0.8

